Sources/FrostedUI/Resources/Icons.xcassets/mailOut12.imageset/mail-out-12.svg

<svg width="12" height="12" viewBox="0 0 12 12" fill="none" xmlns="http://www.w3.org/2000/svg" data-fui-icon="true">
  <path
    d="M8.65137 1.5C9.77812 1.5 10.6922 2.41333 10.6924 3.54004V5C10.6924 5.41415 10.3565 5.74989 9.94238 5.75C9.57455 5.75 9.26899 5.48512 9.20508 5.13574L6.75488 6.60938C6.32958 6.86499 5.84191 7 5.3457 7C4.84963 6.99993 4.36269 6.86492 3.9375 6.60938L1.5 5.14355V8.45996C1.50018 8.75814 1.74186 8.99982 2.04004 9H7.5C7.91421 9 8.25 9.33579 8.25 9.75C8.25 10.1642 7.91421 10.5 7.5 10.5H2.04004C0.913437 10.4998 0.000181125 9.58656 0 8.45996V3.54004C0.000181769 2.41344 0.913437 1.50018 2.04004 1.5H8.65137ZM10 6.62402C10 6.40208 10.2678 6.29037 10.4258 6.44629L11.8193 7.82227C11.9185 7.92015 11.9185 8.07985 11.8193 8.17773L10.4258 9.55371C10.2678 9.70963 10 9.59792 10 9.37598V8.75H8C7.58579 8.75 7.25 8.41421 7.25 8C7.25 7.58579 7.58579 7.25 8 7.25H10V6.62402ZM2.04004 3C1.78853 3.00015 1.57865 3.1725 1.51855 3.40527L4.70996 5.32324C4.9018 5.43855 5.12188 5.49993 5.3457 5.5C5.56965 5.5 5.7895 5.4386 5.98145 5.32324L9.17285 3.40527C9.11251 3.17251 8.90294 3 8.65137 3H2.04004Z"
    fill="currentColor"
  />
</svg>

<svg xmlns="http://www.w3.org/2000/svg" width="12" height="12" fill="none" data-fui-icon="true" viewBox="0 0 12 12"><path fill="currentColor" d="M8.651 1.5c1.127 0 2.041.913 2.041 2.04V5a.75.75 0 0 1-1.487.136l-2.45 1.473a2.74 2.74 0 0 1-2.817 0L1.5 5.144V8.46c0 .298.242.54.54.54H7.5a.75.75 0 0 1 0 1.5H2.04A2.04 2.04 0 0 1 0 8.46V3.54A2.04 2.04 0 0 1 2.04 1.5zM10 6.624a.25.25 0 0 1 .426-.178l1.393 1.376c.1.098.1.258 0 .356l-1.393 1.376A.25.25 0 0 1 10 9.376V8.75H8a.75.75 0 0 1 0-1.5h2zM2.04 3a.54.54 0 0 0-.521.405L4.71 5.323a1.24 1.24 0 0 0 1.271 0l3.192-1.918A.54.54 0 0 0 8.65 3z"/></svg>
